X:3183
T:Upperchurch No.1
O:ireland
M:2/4
L:1/16
S:Irish Traditional    Arranged by John Layton 15/2/01
R:Polka
K:G
B4 B4|A2G2 G2AG|F2G2 A2B2|d2c2 c3B|c4 c4|B2A2 A3F|G2F2 E2F2|1 E2D2 B,2D2
:|
2 A2G2 G3B|:d2B2 B3c|d2B2 B2AB|d2Bd e2B2|d2c2 c3B|c2A2 A3B|c2A2 A2cd|
d2c2 B2A2|1 E2D2 B,2D2:|2 G4 G2A2|
